X:1
T:To Victory!
T:George Crawford Hugg
T:To Victory!
T:Public Domain
T:Public Domain
C:George Crawford Hugg
Z:Public Domain
%%score ( 1 2 ) ( 3 4 )
L:1/8
M:4/4
K:Ab
V:1 treble 
V:2 treble 
V:3 bass 
V:4 bass 
V:1
 E2 | [Ec]2 [Ec]2 [Ec]2 ([Fd][Ec]) | [DB]2 [DB]2 [DB]2 E2 | [DB]2 [DB]2 [DB]2 ([Ec][DB]) | %4
w: 1.~We’re|ing for- ward brave *|and strong, We’re fight-|ev- er ’gainst the *|
w: 2.~The|with- in, and those *|with- out, We’re pledged|con- quer and to *|
w: 3.~Faith|our shield, pro- tect- *|ing, true, Hope gives|ev- er strength a- *|
 [CA]2 [CA]2 [CA]2 E2 | [Ec]2 [Ec]2 [_Gc]2 (Bc) | [Fd]2 [Fd]2 [DF]4 | [CE]4 [Ec]3 [Ec] | %8
w: wrong; Our watch- word|shall be our song, *|on, for Je-|sus! * *|
w: rout; They fall as|our war cry shout, *|on for Je-|sus! On with|
w: new, The love of|will bring us through, *|on for Je-|sus! * *|
 [DB]2 [CA]4 z2 |:"^Refrain" [Ec]2 [Ec]2 [Ec]2 [Ec]2 | [Ee]4 (E2 D2) | [CA]2 [CA]2 [CA]2 [CA]2 | %12
w: ||||
w: fly- ing|ban- ners! On with|glad ho- *|nas! Je- sus Christ|
w: ||||
 [=Ec]4 [EG]4 | [DF]2 [DF]2 [DA]2 (GF) | [CE]2 [CA]2 [Ec]4 | [Ec][DB][CA][Ec] [EB]2 [=DB]2 | %16
w: ||||
w: is lead-|ing on, Lead- ing *|to vic- to-|ry, Lead- ing on to vic-|
w: ||||
 (B4 d4) :| [Ec][DB][CA][Ec] [DB]2 [DB]2 | [CA]6 |] %19
w: |||
w: to- *|||
w: |||
V:2
 E2 | x8 | x6 E2 | x8 | x6 E2 | x6 _G2 | x8 | x8 | x8 |: x8 | x4 B4 | x8 | x8 | x6 D2 | x8 | x8 | %16
w: march-||ing||grand|On,|||||||||||
w: sins||to||we|On,|||||san-|||on|||
w: is||us||God|On,|||||||||||
 E8 :| x8 | x6 |] %19
w: |||
w: ry,|||
w: |||
V:3
 E,2 | [A,,A,]2 [A,,A,]2 [A,,A,]2 [A,,A,]2 | [E,G,]2 [E,G,]2 [E,G,]2 E,2 | %3
 [E,G,]2 [E,G,]2 [E,G,]2 [E,G,]2 | [A,,E,]2 [A,,E,]2 [A,,E,]2 E,2 | %5
 [A,,A,]2 [A,,A,]2 [A,,A,]2 [A,,A,]2 | [D,A,]2 [D,A,]2 [D,A,]4 | [E,A,]4 [E,A,]3 [E,A,] | %8
 [E,G,]2 [A,,E,A,]4 z2 |: [A,,A,]2 [C,A,]2 [E,A,]2 A,2 | [E,G,]4 [E,G,]4 | %11
 [F,,A,]2 [A,,A,]2 [C,A,]2 [F,A,]2 | [C,G,]4 (C2 B,2) | [D,A,]2 [D,A,]2 [D,F,]2 [D,A,]2 | %14
 [A,,A,]2 [A,,E,]2 [A,,A,]4 | [A,,A,][A,,A,][A,,A,][A,,A,] [E,G,]2 F,A, | (G,4 B,4) :| %17
 [A,,A,][A,,A,][A,,A,][A,,A,] [E,G,]2 E,2 | [A,,E,]6 |] %19
V:4
 E,2 | x8 | x6 E,2 | x8 | x6 E,2 | x8 | x8 | x8 | x8 |: x6 A,2 | x8 | x8 | x4 C,4 | x8 | x8 | %15
 x6 B,,2 | E,8 :| x6 E,2 | x6 |] %19

